svgs/light/timeline.svg

<svg xmlns="http://www.w3.org/2000/svg" viewBox="0 0 640 512"><!--! Font Awesome Pro 6.6.0 by @fontawesome - https://fontawesome.com License - https://fontawesome.com/license (Commercial License) Copyright 2024 Fonticons, Inc. --><path d="M144 48a32 32 0 1 1 0 64 32 32 0 1 1 0-64zm16 94c27.6-7.1 48-32.2 48-62c0-35.3-28.7-64-64-64s-64 28.7-64 64c0 29.8 20.4 54.9 48 62l0 114L16 256c-8.8 0-16 7.2-16 16s7.2 16 16 16l304 0 0 82c-27.6 7.1-48 32.2-48 62c0 35.3 28.7 64 64 64s64-28.7 64-64c0-29.8-20.4-54.9-48-62l0-82 272 0c8.8 0 16-7.2 16-16s-7.2-16-16-16l-112 0 0-114c27.6-7.1 48-32.2 48-62c0-35.3-28.7-64-64-64s-64 28.7-64 64c0 29.8 20.4 54.9 48 62l0 114-320 0 0-114zM336 464a32 32 0 1 1 0-64 32 32 0 1 1 0 64zM496 48a32 32 0 1 1 0 64 32 32 0 1 1 0-64z"/></svg>

<svg xmlns="http://www.w3.org/2000/svg" viewBox="0 0 640 512"><!--! Font Awesome Pro 6.4.2 by @fontawesome - https://fontawesome.com License - https://fontawesome.com/license (Commercial License) Copyright 2023 Fonticons, Inc. --><path d="M144 48a32 32 0 1 1 0 64 32 32 0 1 1 0-64zm16 94c27.6-7.1 48-32.2 48-62c0-35.3-28.7-64-64-64s-64 28.7-64 64c0 29.8 20.4 54.9 48 62V256H16c-8.8 0-16 7.2-16 16s7.2 16 16 16H320v82c-27.6 7.1-48 32.2-48 62c0 35.3 28.7 64 64 64s64-28.7 64-64c0-29.8-20.4-54.9-48-62V288H624c8.8 0 16-7.2 16-16s-7.2-16-16-16H512V142c27.6-7.1 48-32.2 48-62c0-35.3-28.7-64-64-64s-64 28.7-64 64c0 29.8 20.4 54.9 48 62V256H160V142zM336 464a32 32 0 1 1 0-64 32 32 0 1 1 0 64zM496 48a32 32 0 1 1 0 64 32 32 0 1 1 0-64z"/></svg>
